SVG_Azure_Grouped/Data/SSIS Integration Runtime.svg

<?xml version="1.0" encoding="UTF-8" standalone="no"?>
<!-- Generated by Microsoft Visio, SVG Export SSIS Integration Runtime.svg Page-1 -->

<svg
   xmlns:dc="http://purl.org/dc/elements/1.1/"
   xmlns:cc="http://creativecommons.org/ns#"
   xmlns:rdf="http://www.w3.org/1999/02/22-rdf-syntax-ns#"
   xmlns:svg="http://www.w3.org/2000/svg"
   xmlns="http://www.w3.org/2000/svg"
   xmlns:xlink="http://www.w3.org/1999/xlink"
   xmlns:sodipodi="http://sodipodi.sourceforge.net/DTD/sodipodi-0.dtd"
   xmlns:inkscape="http://www.inkscape.org/namespaces/inkscape"
   width="0.78740078in"
   height="0.78741604in"
   viewBox="0 0 56.692854 56.694096"
   xml:space="preserve"
   class="st13"
   version="1.1"
   id="svg161"
   sodipodi:docname="SSIS Integration Runtime.svg"
   style="font-size:12px;overflow:visible;color-interpolation-filters:sRGB;fill:none;fill-rule:evenodd;stroke-linecap:square;stroke-miterlimit:3"
   inkscape:version="0.92.5 (2060ec1f9f, 2020-04-08)"><metadata
   id="metadata165"><rdf:RDF><cc:Work
       rdf:about=""><dc:format>image/svg+xml</dc:format><dc:type
         rdf:resource="http://purl.org/dc/dcmitype/StillImage" /></cc:Work></rdf:RDF></metadata><sodipodi:namedview
   pagecolor="#ffffff"
   bordercolor="#666666"
   borderopacity="1"
   objecttolerance="10"
   gridtolerance="10"
   guidetolerance="10"
   inkscape:pageopacity="0"
   inkscape:pageshadow="2"
   inkscape:window-width="640"
   inkscape:window-height="480"
   id="namedview163"
   showgrid="false"
   inkscape:zoom="1.8365233"
   inkscape:cx="37.795184"
   inkscape:cy="18.897682"
   inkscape:window-x="0"
   inkscape:window-y="0"
   inkscape:window-maximized="0"
   inkscape:current-layer="svg161" />
	<style
   type="text/css"
   id="style2">
	<![CDATA[
		.st1 {fill:none;stroke:none;stroke-linecap:butt;stroke-width:0.48}
		.st2 {fill:url(#grad0-7);stroke:none;stroke-linecap:butt;stroke-width:0.48}
		.st3 {fill:#e8e8e8;stroke:none;stroke-linecap:butt;stroke-width:0.48}
		.st4 {fill:#50e6ff;stroke:none;stroke-linecap:butt;stroke-width:0.48}
		.st5 {fill:#198ab3;stroke:none;stroke-linecap:butt;stroke-width:0.48}
		.st6 {fill:url(#grad0-17);stroke:none;stroke-linecap:butt;stroke-width:0.48}
		.st7 {fill:#ffffff;stroke:none;stroke-linecap:butt;stroke-width:0.48}
		.st8 {fill:#ffffff}
		.st9 {stroke:none;stroke-linecap:butt;stroke-width:0.48}
		.st10 {fill:#212121;stroke:none;stroke-linecap:butt;stroke-width:0.48}
		.st11 {fill:#76bc2d;stroke:none;stroke-linecap:butt;stroke-width:0.48}
		.st12 {fill:#76bc2d}
		.st13 {fill:none;fill-rule:evenodd;font-size:12px;overflow:visible;stroke-linecap:square;stroke-miterlimit:3}
	]]>
	</style>

	<defs
   id="Patterns_And_Gradients">
		<linearGradient
   id="grad0-7"
   x1="0"
   y1="44.658502"
   x2="45.632801"
   y2="44.658502"
   gradientTransform="scale(0.93682613,1.0674339)"
   gradientUnits="userSpaceOnUse">
			<stop
   offset="0"
   stop-color="#005ba1"
   stop-opacity="1"
   id="stop4" />
			<stop
   offset="0.07"
   stop-color="#0060a9"
   stop-opacity="1"
   id="stop6" />
			<stop
   offset="0.36"
   stop-color="#0071c8"
   stop-opacity="1"
   id="stop8" />
			<stop
   offset="0.52"
   stop-color="#0078d4"
   stop-opacity="1"
   id="stop10" />
			<stop
   offset="0.64"
   stop-color="#0074cd"
   stop-opacity="1"
   id="stop12" />
			<stop
   offset="0.82"
   stop-color="#006abb"
   stop-opacity="1"
   id="stop14" />
			<stop
   offset="1"
   stop-color="#005ba1"
   stop-opacity="1"
   id="stop16" />
		</linearGradient>
		<linearGradient
   id="grad0-17"
   x1="0"
   y1="0"
   x2="1"
   y2="0"
   gradientTransform="rotate(-90,0.5,0.5)">
			<stop
   offset="0"
   stop-color="#5e9624"
   stop-opacity="1"
   id="stop19" />
			<stop
   offset="0.255"
   stop-color="#619c25"
   stop-opacity="1"
   id="stop21" />
			<stop
   offset="0.51"
   stop-color="#76bc2d"
   stop-opacity="1"
   id="stop23" />
			<stop
   offset="0.91"
   stop-color="#86d633"
   stop-opacity="1"
   id="stop25" />
			<stop
   offset="1"
   stop-color="#86d633"
   stop-opacity="1"
   id="stop27" />
		</linearGradient>
	<linearGradient
   inkscape:collect="always"
   xlink:href="#grad0-17"
   id="linearGradient4675"
   gradientTransform="scale(1.0024973,0.99750888)"
   x1="0"
   y1="75.128952"
   x2="21.489733"
   y2="75.128952"
   gradientUnits="userSpaceOnUse" /><linearGradient
   inkscape:collect="always"
   xlink:href="#grad0-17"
   id="linearGradient4677"
   gradientTransform="scale(1.0024973,0.99750888)"
   x1="0"
   y1="75.128952"
   x2="21.489733"
   y2="75.128952"
   gradientUnits="userSpaceOnUse" /></defs>
	<g
   id="g159"
   transform="translate(-5.6693772,-5.6682)">
		<title
   id="title31">Page-1</title>
		<g
   id="group18860-1"
   transform="translate(5.66929,-34.0157)">
			<title
   id="title33">SSIS Integration Runtime.18860</title>
			<g
   id="shape18861-2">
				<title
   id="title35">Sheet.18861</title>
				<rect
   x="0"
   y="39.967098"
   width="56.692902"
   height="56.4109"
   class="st1"
   id="rect37"
   style="fill:none;stroke:none;stroke-width:0.47999999;stroke-linecap:butt" />
			</g>
			<g
   id="shape18862-4"
   transform="translate(7.13991,-0.282054)">
				<title
   id="title40">Sheet.18862</title>
				<path
   d="M 21.38,55.36 C 9.57,55.36 0,52.05 0,47.67 v 41.01 c 0,4.21 9.4,7.63 21.08,7.7 h 0.3 c 11.8,0 21.37,-3.32 21.37,-7.7 V 47.67 c 0,4.28 -9.57,7.69 -21.37,7.69 z"
   class="st2"
   id="path42"
   inkscape:connector-curvature="0"
   style="fill:url(#grad0-7);stroke:none;stroke-width:0.47999999;stroke-linecap:butt" />
			</g>
			<g
   id="shape18863-8"
   transform="translate(7.13764,-41.2961)">
				<title
   id="title45">Sheet.18863</title>
				<path
   d="m 42.75,88.68 c 0,4.28 -9.57,7.7 -21.37,7.7 C 9.58,96.38 0,93.06 0,88.68 c 0,-4.38 9.57,-7.7 21.38,-7.7 11.81,0 21.37,3.32 21.37,7.7 z"
   class="st3"
   id="path47"
   inkscape:connector-curvature="0"
   style="fill:#e8e8e8;stroke:none;stroke-width:0.47999999;stroke-linecap:butt" />
			</g>
			<g
   id="shape18864-10"
   transform="translate(12.1068,-44.7141)">
				<title
   id="title50">Sheet.18864</title>
				<path
   d="m 32.81,91.47 c 0,2.72 -7.37,4.91 -16.4,4.91 C 7.37,96.38 0,94.19 0,91.47 c 0,-2.72 7.37,-4.88 16.41,-4.88 9.03,0 16.4,2.19 16.4,4.88 z"
   class="st4"
   id="path52"
   inkscape:connector-curvature="0"
   style="fill:#50e6ff;stroke:none;stroke-width:0.47999999;stroke-linecap:butt" />
			</g>
			<g
   id="shape18865-12"
   transform="translate(15.5441,-44.7141)">
				<title
   id="title55">Sheet.18865</title>
				<path
   d="M 12.97,92.69 A 38.5211,38.3295 -180 0 0 0,94.59 38.0772,37.8878 -180 0 0 12.97,96.38 37.1792,36.9942 -180 0 0 25.94,94.45 39.4651,39.2687 -180 0 0 12.97,92.69 Z"
   class="st5"
   id="path57"
   inkscape:connector-curvature="0"
   style="fill:#198ab3;stroke:none;stroke-width:0.47999999;stroke-linecap:butt" />
			</g>
			<g
   id="shape18866-14"
   transform="translate(35.1496,-0.988882)">
				<title
   id="title60">Sheet.18866</title>
				<ellipse
   cx="10.7717"
   cy="85.659897"
   rx="10.7717"
   ry="10.7181"
   class="st6"
   id="ellipse62"
   style="fill:url(#linearGradient4675);stroke:none;stroke-width:0.47999999;stroke-linecap:butt" />
			</g>
			<g
   id="shape18867-18"
   transform="translate(37.7274,-10.9533)">
				<title
   id="title65">Sheet.18867</title>
				<rect
   x="0"
   y="94.870697"
   width="2.0392399"
   height="1.5073"
   class="st7"
   id="rect67"
   style="fill:#ffffff;stroke:none;stroke-width:0.47999999;stroke-linecap:butt" />
			</g>
			<g
   id="shape18868-20"
   transform="translate(52.0764,-10.9533)">
				<title
   id="title70">Sheet.18868</title>
				<rect
   x="0"
   y="94.870697"
   width="2.0392399"
   height="1.5073"
   class="st7"
   id="rect72"
   style="fill:#ffffff;stroke:none;stroke-width:0.47999999;stroke-linecap:butt" />
			</g>
			<g
   id="shape18869-22"
   transform="translate(39.7474,-7.11172)">
				<title
   id="title75">Sheet.18869</title>
				<path
   d="m 6.69,96.33 v -3.2 H 3.4 V 87.24 L 1.52,87.25 A 1.53071,1.52309 -180 0 0 0,88.78 l 0.04,6.09 a 1.53071,1.52309 -180 0 0 1.53,1.51 h 0.01 z"
   class="st8"
   id="path77"
   inkscape:connector-curvature="0"
   style="fill:#ffffff" />
				<path
   d="m 6.69,96.33 v -3.2 H 3.4 V 87.24 L 1.52,87.25 A 1.53071,1.52309 -180 0 0 0,88.78 l 0.04,6.09 a 1.53071,1.52309 -180 0 0 1.53,1.51 h 0.01"
   class="st9"
   id="path79"
   inkscape:connector-curvature="0"
   style="stroke:none;stroke-width:0.47999999;stroke-linecap:butt" />
			</g>
			<g
   id="shape18870-25"
   transform="translate(45.504,-7.15741)">
				<title
   id="title82">Sheet.18870</title>
				<path
   d="m 0,87.28 v 3.55 h 3.3 v 5.55 L 5.07,96.37 A 1.53071,1.52309 -180 0 0 6.59,94.83 L 6.55,88.75 A 1.53071,1.52309 -180 0 0 5.02,87.24 H 5.01 Z"
   class="st8"
   id="path84"
   inkscape:connector-curvature="0"
   style="fill:#ffffff" />
				<path
   d="m 0,87.28 v 3.55 h 3.3 v 5.55 L 5.07,96.37 A 1.53071,1.52309 -180 0 0 6.59,94.83 L 6.55,88.75 A 1.53071,1.52309 -180 0 0 5.02,87.24 H 5.01"
   class="st9"
   id="path86"
   inkscape:connector-curvature="0"
   style="stroke:none;stroke-width:0.47999999;stroke-linecap:butt" />
			</g>
			<g
   id="shape18871-28"
   transform="translate(35.1496,-0.988882)">
				<title
   id="title89">Sheet.18871</title>
				<ellipse
   cx="10.7717"
   cy="85.659897"
   rx="10.7717"
   ry="10.7181"
   class="st6"
   id="ellipse91"
   style="fill:url(#linearGradient4677);stroke:none;stroke-width:0.47999999;stroke-linecap:butt" />
			</g>
			<g
   id="shape18872-31"
   transform="translate(37.7274,-10.9533)">
				<title
   id="title94">Sheet.18872</title>
				<rect
   x="0"
   y="94.870697"
   width="2.0392399"
   height="1.5073"
   class="st7"
   id="rect96"
   style="fill:#ffffff;stroke:none;stroke-width:0.47999999;stroke-linecap:butt" />
			</g>
			<g
   id="shape18873-33"
   transform="translate(52.0764,-10.9533)">
				<title
   id="title99">Sheet.18873</title>
				<rect
   x="0"
   y="94.870697"
   width="2.0392399"
   height="1.5073"
   class="st7"
   id="rect101"
   style="fill:#ffffff;stroke:none;stroke-width:0.47999999;stroke-linecap:butt" />
			</g>
			<g
   id="shape18874-35"
   transform="translate(39.7474,-7.11172)">
				<title
   id="title104">Sheet.18874</title>
				<path
   d="m 6.69,96.33 v -3.2 H 3.4 V 87.24 L 1.52,87.25 A 1.53071,1.52309 -180 0 0 0,88.78 l 0.04,6.09 a 1.53071,1.52309 -180 0 0 1.53,1.51 h 0.01 z"
   class="st8"
   id="path106"
   inkscape:connector-curvature="0"
   style="fill:#ffffff" />
				<path
   d="m 6.69,96.33 v -3.2 H 3.4 V 87.24 L 1.52,87.25 A 1.53071,1.52309 -180 0 0 0,88.78 l 0.04,6.09 a 1.53071,1.52309 -180 0 0 1.53,1.51 h 0.01"
   class="st9"
   id="path108"
   inkscape:connector-curvature="0"
   style="stroke:none;stroke-width:0.47999999;stroke-linecap:butt" />
			</g>
			<g
   id="shape18875-38"
   transform="translate(45.504,-7.15741)">
				<title
   id="title111">Sheet.18875</title>
				<path
   d="m 0,87.28 v 3.55 h 3.3 v 5.55 L 5.07,96.37 A 1.53071,1.52309 -180 0 0 6.59,94.83 L 6.55,88.75 A 1.53071,1.52309 -180 0 0 5.02,87.24 H 5.01 Z"
   class="st8"
   id="path113"
   inkscape:connector-curvature="0"
   style="fill:#ffffff" />
				<path
   d="m 0,87.28 v 3.55 h 3.3 v 5.55 L 5.07,96.37 A 1.53071,1.52309 -180 0 0 6.59,94.83 L 6.55,88.75 A 1.53071,1.52309 -180 0 0 5.02,87.24 H 5.01"
   class="st9"
   id="path115"
   inkscape:connector-curvature="0"
   style="stroke:none;stroke-width:0.47999999;stroke-linecap:butt" />
			</g>
			<g
   id="group18876-41"
   transform="translate(32.5134,-1.70756)">
				<title
   id="title118">Sheet.18876</title>
				<g
   id="shape18877-42">
					<title
   id="title120">Sheet.18877</title>
					<ellipse
   cx="11.2059"
   cy="85.227798"
   rx="11.2059"
   ry="11.1502"
   class="st7"
   id="ellipse122"
   style="fill:#ffffff;stroke:none;stroke-width:0.47999999;stroke-linecap:butt" />
				</g>
				<g
   id="shape18878-44"
   transform="translate(1.70135,-2.06859)">
					<title
   id="title125">Sheet.18878</title>
					<path
   d="M 9.51,77.84 A 9.50513,9.45784 0 1 1 0,87.3 9.50457,9.45728 0 0 1 9.51,77.84 Z m 0,-3.39 A 12.9067,12.8425 -180 1 0 22.41,87.3 12.9209,12.8566 -180 0 0 9.51,74.45 Z"
   class="st10"
   id="path127"
   inkscape:connector-curvature="0"
   style="fill:#212121;stroke:none;stroke-width:0.47999999;stroke-linecap:butt" />
				</g>
			</g>
			<g
   id="group18879-46"
   transform="translate(35.6984,-8.17563)">
				<title
   id="title131">Sheet.18879</title>
				<g
   id="shape18880-47"
   transform="translate(0,-3.85343)">
					<title
   id="title133">Sheet.18880</title>
					<rect
   x="0"
   y="94.866096"
   width="2.04491"
   height="1.5118099"
   class="st11"
   id="rect135"
   style="fill:#76bc2d;stroke:none;stroke-width:0.47999999;stroke-linecap:butt" />
				</g>
				<g
   id="shape18881-49"
   transform="translate(14.3887,-3.85343)">
					<title
   id="title138">Sheet.18881</title>
					<rect
   x="0"
   y="94.866096"
   width="2.04491"
   height="1.5118099"
   class="st11"
   id="rect140"
   style="fill:#76bc2d;stroke:none;stroke-width:0.47999999;stroke-linecap:butt" />
				</g>
				<g
   id="shape18882-51"
   transform="translate(2.0245)">
					<title
   id="title143">Sheet.18882</title>
					<path
   d="M 6.71,96.33 V 93.12 H 3.4 V 87.21 L 1.52,87.22 A 1.53071,1.52309 -180 0 0 0,88.76 l 0.04,6.1 a 1.53468,1.52704 -180 0 0 1.53,1.52 h 0.01 z"
   class="st12"
   id="path145"
   inkscape:connector-curvature="0"
   style="fill:#76bc2d" />
					<path
   d="M 6.71,96.33 V 93.12 H 3.4 V 87.21 L 1.52,87.22 A 1.53071,1.52309 -180 0 0 0,88.76 l 0.04,6.1 a 1.53468,1.52704 -180 0 0 1.53,1.52 h 0.01"
   class="st9"
   id="path147"
   inkscape:connector-curvature="0"
   style="stroke:none;stroke-width:0.47999999;stroke-linecap:butt" />
				</g>
				<g
   id="shape18883-54"
   transform="translate(7.79868,-0.0490774)">
					<title
   id="title150">Sheet.18883</title>
					<path
   d="m 0,87.25 v 3.57 h 3.31 v 5.56 L 5.09,96.37 A 1.53071,1.52309 -180 0 0 6.61,94.83 L 6.57,88.73 A 1.53524,1.52761 -180 0 0 5.04,87.21 H 5.03 Z"
   class="st12"
   id="path152"
   inkscape:connector-curvature="0"
   style="fill:#76bc2d" />
					<path
   d="m 0,87.25 v 3.57 h 3.31 v 5.56 L 5.09,96.37 A 1.53071,1.52309 -180 0 0 6.61,94.83 L 6.57,88.73 A 1.53524,1.52761 -180 0 0 5.04,87.21 H 5.03"
   class="st9"
   id="path154"
   inkscape:connector-curvature="0"
   style="stroke:none;stroke-width:0.47999999;stroke-linecap:butt" />
				</g>
			</g>
		</g>
	</g>
</svg>

<?xml version="1.0" encoding="UTF-8" standalone="no"?>
<!DOCTYPE svg PUBLIC "-//W3C//DTD SVG 1.1//EN" "http://www.w3.org/Graphics/SVG/1.1/DTD/svg11.dtd">
<!-- Generated by Microsoft Visio, SVG Export SSIS Integration Runtime.svg Page-1 -->
<svg xmlns="http://www.w3.org/2000/svg" xmlns:xlink="http://www.w3.org/1999/xlink" xmlns:ev="http://www.w3.org/2001/xml-events"
		width="0.944882in" height="1.33858in" viewBox="0 0 68.0315 96.378" xml:space="preserve" color-interpolation-filters="sRGB"
		class="st13">
	<style type="text/css">
	<![CDATA[
		.st1 {fill:none;stroke:none;stroke-linecap:butt;stroke-width:0.48}
		.st2 {fill:url(#grad0-7);stroke:none;stroke-linecap:butt;stroke-width:0.48}
		.st3 {fill:#e8e8e8;stroke:none;stroke-linecap:butt;stroke-width:0.48}
		.st4 {fill:#50e6ff;stroke:none;stroke-linecap:butt;stroke-width:0.48}
		.st5 {fill:#198ab3;stroke:none;stroke-linecap:butt;stroke-width:0.48}
		.st6 {fill:url(#grad0-17);stroke:none;stroke-linecap:butt;stroke-width:0.48}
		.st7 {fill:#ffffff;stroke:none;stroke-linecap:butt;stroke-width:0.48}
		.st8 {fill:#ffffff}
		.st9 {stroke:none;stroke-linecap:butt;stroke-width:0.48}
		.st10 {fill:#212121;stroke:none;stroke-linecap:butt;stroke-width:0.48}
		.st11 {fill:#76bc2d;stroke:none;stroke-linecap:butt;stroke-width:0.48}
		.st12 {fill:#76bc2d}
		.st13 {fill:none;fill-rule:evenodd;font-size:12px;overflow:visible;stroke-linecap:square;stroke-miterlimit:3}
	]]>
	</style>

	<defs id="Patterns_And_Gradients">
		<linearGradient id="grad0-7" x1="0" y1="0" x2="1" y2="0" gradientTransform="rotate(0 0.5 0.5)">
			<stop offset="0" stop-color="#005ba1" stop-opacity="1"/>
			<stop offset="0.07" stop-color="#0060a9" stop-opacity="1"/>
			<stop offset="0.36" stop-color="#0071c8" stop-opacity="1"/>
			<stop offset="0.52" stop-color="#0078d4" stop-opacity="1"/>
			<stop offset="0.64" stop-color="#0074cd" stop-opacity="1"/>
			<stop offset="0.82" stop-color="#006abb" stop-opacity="1"/>
			<stop offset="1" stop-color="#005ba1" stop-opacity="1"/>
		</linearGradient>
		<linearGradient id="grad0-17" x1="0" y1="0" x2="1" y2="0" gradientTransform="rotate(-90 0.5 0.5)">
			<stop offset="0" stop-color="#5e9624" stop-opacity="1"/>
			<stop offset="0.255" stop-color="#619c25" stop-opacity="1"/>
			<stop offset="0.51" stop-color="#76bc2d" stop-opacity="1"/>
			<stop offset="0.91" stop-color="#86d633" stop-opacity="1"/>
			<stop offset="1" stop-color="#86d633" stop-opacity="1"/>
		</linearGradient>
	</defs>
	<g>
		<title>Page-1</title>
		<g id="group18424-1" transform="translate(5.66929,-34.0157)">
			<title>SSIS Integration Runtime.18424</title>
			<g id="shape18425-2">
				<title>Sheet.18425</title>
				<rect x="0" y="39.9671" width="56.6929" height="56.4109" class="st1"/>
			</g>
			<g id="shape18426-4" transform="translate(7.13991,-0.282054)">
				<title>Sheet.18426</title>
				<path d="M21.38 55.36 C9.57 55.36 0 52.05 0 47.67 L0 88.68 C0 92.89 9.4 96.31 21.08 96.38 L21.38 96.38 C33.18 96.38
							 42.75 93.06 42.75 88.68 L42.75 47.67 C42.75 51.95 33.18 55.36 21.38 55.36 Z" class="st2"/>
			</g>
			<g id="shape18427-8" transform="translate(7.13764,-41.2961)">
				<title>Sheet.18427</title>
				<path d="M42.75 88.68 C42.75 92.96 33.18 96.38 21.38 96.38 C9.58 96.38 0 93.06 0 88.68 C0 84.3 9.57 80.98 21.38 80.98
							 C33.19 80.98 42.75 84.3 42.75 88.68 Z" class="st3"/>
			</g>
			<g id="shape18428-10" transform="translate(12.1068,-44.7141)">
				<title>Sheet.18428</title>
				<path d="M32.81 91.47 C32.81 94.19 25.44 96.38 16.41 96.38 C7.37 96.38 0 94.19 0 91.47 C0 88.75 7.37 86.59 16.41
							 86.59 C25.44 86.59 32.81 88.78 32.81 91.47 Z" class="st4"/>
			</g>
			<g id="shape18429-12" transform="translate(15.5441,-44.7141)">
				<title>Sheet.18429</title>
				<path d="M12.97 92.69 A38.5211 38.3295 -180 0 0 -0 94.59 A38.0772 37.8878 -180 0 0 12.97 96.38 A37.1792 36.9942 -180
							 0 0 25.94 94.45 A39.4651 39.2687 -180 0 0 12.97 92.69 Z" class="st5"/>
			</g>
			<g id="shape18430-14" transform="translate(35.1496,-0.988882)">
				<title>Sheet.18430</title>
				<ellipse cx="10.7717" cy="85.6599" rx="10.7717" ry="10.7181" class="st6"/>
			</g>
			<g id="shape18431-18" transform="translate(37.7274,-10.9533)">
				<title>Sheet.18431</title>
				<rect x="0" y="94.8707" width="2.03924" height="1.5073" class="st7"/>
			</g>
			<g id="shape18432-20" transform="translate(52.0764,-10.9533)">
				<title>Sheet.18432</title>
				<rect x="0" y="94.8707" width="2.03924" height="1.5073" class="st7"/>
			</g>
			<g id="shape18433-22" transform="translate(39.7474,-7.11172)">
				<title>Sheet.18433</title>
				<path d="M6.69 96.33 L6.69 93.13 L3.4 93.13 L3.4 87.24 L1.52 87.25 A1.53071 1.52309 -180 0 0 0 88.78 L0.04 94.87
							 A1.53071 1.52309 -180 0 0 1.57 96.38 L1.58 96.38 L6.69 96.33 Z" class="st8"/>
				<path d="M6.69 96.33 L6.69 93.13 L3.4 93.13 L3.4 87.24 L1.52 87.25 A1.53071 1.52309 -180 0 0 0 88.78 L0.04 94.87
							 A1.53071 1.52309 -180 0 0 1.57 96.38 L1.58 96.38" class="st9"/>
			</g>
			<g id="shape18434-25" transform="translate(45.504,-7.15741)">
				<title>Sheet.18434</title>
				<path d="M0 87.28 L0 90.83 L3.3 90.83 L3.3 96.38 L5.07 96.37 A1.53071 1.52309 -180 0 0 6.59 94.83 L6.55 88.75 A1.53071
							 1.52309 -180 0 0 5.02 87.24 L5.01 87.24 L0 87.28 Z" class="st8"/>
				<path d="M0 87.28 L0 90.83 L3.3 90.83 L3.3 96.38 L5.07 96.37 A1.53071 1.52309 -180 0 0 6.59 94.83 L6.55 88.75 A1.53071
							 1.52309 -180 0 0 5.02 87.24 L5.01 87.24" class="st9"/>
			</g>
			<g id="shape18435-28" transform="translate(35.1496,-0.988882)">
				<title>Sheet.18435</title>
				<ellipse cx="10.7717" cy="85.6599" rx="10.7717" ry="10.7181" class="st6"/>
			</g>
			<g id="shape18436-31" transform="translate(37.7274,-10.9533)">
				<title>Sheet.18436</title>
				<rect x="0" y="94.8707" width="2.03924" height="1.5073" class="st7"/>
			</g>
			<g id="shape18437-33" transform="translate(52.0764,-10.9533)">
				<title>Sheet.18437</title>
				<rect x="0" y="94.8707" width="2.03924" height="1.5073" class="st7"/>
			</g>
			<g id="shape18438-35" transform="translate(39.7474,-7.11172)">
				<title>Sheet.18438</title>
				<path d="M6.69 96.33 L6.69 93.13 L3.4 93.13 L3.4 87.24 L1.52 87.25 A1.53071 1.52309 -180 0 0 0 88.78 L0.04 94.87
							 A1.53071 1.52309 -180 0 0 1.57 96.38 L1.58 96.38 L6.69 96.33 Z" class="st8"/>
				<path d="M6.69 96.33 L6.69 93.13 L3.4 93.13 L3.4 87.24 L1.52 87.25 A1.53071 1.52309 -180 0 0 0 88.78 L0.04 94.87
							 A1.53071 1.52309 -180 0 0 1.57 96.38 L1.58 96.38" class="st9"/>
			</g>
			<g id="shape18439-38" transform="translate(45.504,-7.15741)">
				<title>Sheet.18439</title>
				<path d="M0 87.28 L0 90.83 L3.3 90.83 L3.3 96.38 L5.07 96.37 A1.53071 1.52309 -180 0 0 6.59 94.83 L6.55 88.75 A1.53071
							 1.52309 -180 0 0 5.02 87.24 L5.01 87.24 L0 87.28 Z" class="st8"/>
				<path d="M0 87.28 L0 90.83 L3.3 90.83 L3.3 96.38 L5.07 96.37 A1.53071 1.52309 -180 0 0 6.59 94.83 L6.55 88.75 A1.53071
							 1.52309 -180 0 0 5.02 87.24 L5.01 87.24" class="st9"/>
			</g>
			<g id="group18440-41" transform="translate(32.5134,-1.70756)">
				<title>Sheet.18440</title>
				<g id="shape18441-42">
					<title>Sheet.18441</title>
					<ellipse cx="11.2059" cy="85.2278" rx="11.2059" ry="11.1502" class="st7"/>
				</g>
				<g id="shape18442-44" transform="translate(1.70135,-2.06859)">
					<title>Sheet.18442</title>
					<path d="M9.51 77.84 A9.50513 9.45784 0 1 1 0 87.3 A9.50457 9.45728 0 0 1 9.51 77.84 ZM9.51 74.45 A12.9067 12.8425
								 -180 1 0 22.41 87.3 A12.9209 12.8566 -180 0 0 9.51 74.45 Z" class="st10"/>
				</g>
			</g>
			<g id="group18443-46" transform="translate(35.6984,-8.17563)">
				<title>Sheet.18443</title>
				<g id="shape18444-47" transform="translate(1.64868E-14,-3.85343)">
					<title>Sheet.18444</title>
					<rect x="0" y="94.8661" width="2.04491" height="1.51181" class="st11"/>
				</g>
				<g id="shape18445-49" transform="translate(14.3887,-3.85343)">
					<title>Sheet.18445</title>
					<rect x="0" y="94.8661" width="2.04491" height="1.51181" class="st11"/>
				</g>
				<g id="shape18446-51" transform="translate(2.0245,4.26326E-14)">
					<title>Sheet.18446</title>
					<path d="M6.71 96.33 L6.71 93.12 L3.4 93.12 L3.4 87.21 L1.52 87.22 A1.53071 1.52309 -180 0 0 0 88.76 L0.04 94.86
								 A1.53468 1.52704 -180 0 0 1.57 96.38 L1.58 96.38 L6.71 96.33 Z" class="st12"/>
					<path d="M6.71 96.33 L6.71 93.12 L3.4 93.12 L3.4 87.21 L1.52 87.22 A1.53071 1.52309 -180 0 0 0 88.76 L0.04 94.86
								 A1.53468 1.52704 -180 0 0 1.57 96.38 L1.58 96.38" class="st9"/>
				</g>
				<g id="shape18447-54" transform="translate(7.79868,-0.0490774)">
					<title>Sheet.18447</title>
					<path d="M0 87.25 L0 90.82 L3.31 90.82 L3.31 96.38 L5.09 96.37 A1.53071 1.52309 -180 0 0 6.61 94.83 L6.57 88.73
								 A1.53524 1.52761 -180 0 0 5.04 87.21 L5.03 87.21 L0 87.25 Z" class="st12"/>
					<path d="M0 87.25 L0 90.82 L3.31 90.82 L3.31 96.38 L5.09 96.37 A1.53071 1.52309 -180 0 0 6.61 94.83 L6.57 88.73
								 A1.53524 1.52761 -180 0 0 5.04 87.21 L5.03 87.21" class="st9"/>
				</g>
			</g>
		</g>
	</g>
</svg>
